pp/arrow-down_print.svg

<svg viewBox="0 0 20 20" fill="none" xmlns="http://www.w3.org/2000/svg" height="1em" width="1em">
  <g opacity="0.8">
    <path fill-rule="evenodd" clip-rule="evenodd" d="M17.1523 11.2064C17.6827 11.8428 17.5967 12.7886 16.9603 13.319L12.9603 16.6523C12.3239 17.1827 11.378 17.0967 10.8477 16.4603C10.3173 15.8239 10.4033 14.878 11.0397 14.3477L15.0397 11.0143C15.6761 10.484 16.622 10.57 17.1523 11.2064Z" fill="currentColor"/>
    <path fill-rule="evenodd" clip-rule="evenodd" d="M6.84766 11.2064C7.37801 10.57 8.32385 10.484 8.96027 11.0143L12.9603 14.3477C13.5967 14.878 13.6827 15.8239 13.1523 16.4603C12.622 17.0967 11.6761 17.1827 11.0397 16.6523L7.03972 13.319C6.4033 12.7886 6.31731 11.8428 6.84766 11.2064Z" fill="currentColor"/>
    <path fill-rule="evenodd" clip-rule="evenodd" d="M12 15C11.1716 15 10.5 14.3284 10.5 13.5V5.5C10.5 4.67157 11.1716 4 12 4C12.8284 4 13.5 4.67157 13.5 5.5V13.5C13.5 14.3284 12.8284 15 12 15Z" fill="currentColor"/>
  </g>
  <path fill-rule="evenodd" clip-rule="evenodd" d="M14.3841 11.3465C14.5609 11.5587 14.5322 11.874 14.3201 12.0507L10.3201 15.3841C10.108 15.5609 9.79267 15.5322 9.61589 15.3201C9.4391 15.1079 9.46777 14.7926 9.67991 14.6159L13.6799 11.2825C13.892 11.1057 14.2073 11.1344 14.3841 11.3465Z" fill="black"/>
  <path fill-rule="evenodd" clip-rule="evenodd" d="M5.61589 11.3465C5.79267 11.1344 6.10795 11.1057 6.32009 11.2825L10.3201 14.6159C10.5322 14.7926 10.5609 15.1079 10.3841 15.3201C10.2073 15.5322 9.89204 15.5609 9.67991 15.3841L5.67991 12.0507C5.46777 11.874 5.4391 11.5587 5.61589 11.3465Z" fill="black"/>
  <path fill-rule="evenodd" clip-rule="evenodd" d="M10 15C9.72386 15 9.5 14.7761 9.5 14.5V5C9.5 4.72386 9.72386 4.5 10 4.5C10.2761 4.5 10.5 4.72386 10.5 5V14.5C10.5 14.7761 10.2761 15 10 15Z" fill="black"/>
</svg>

<svg viewBox="0 0 20 20" fill="none" xmlns="http://www.w3.org/2000/svg" height="1em" width="1em">
  <g opacity=".8" fill-rule="evenodd" clip-rule="evenodd" fill="currentColor">
    <path d="M17.152 11.206a1.5 1.5 0 0 1-.192 2.113l-4 3.333a1.5 1.5 0 1 1-1.92-2.304l4-3.334a1.5 1.5 0 0 1 2.112.192Z"/>
    <path d="M6.848 11.206a1.5 1.5 0 0 1 2.112-.192l4 3.334a1.5 1.5 0 1 1-1.92 2.304l-4-3.333a1.5 1.5 0 0 1-.192-2.113Z"/>
    <path d="M12 15a1.5 1.5 0 0 1-1.5-1.5v-8a1.5 1.5 0 0 1 3 0v8A1.5 1.5 0 0 1 12 15Z"/>
  </g>
  <path fill-rule="evenodd" clip-rule="evenodd" d="M14.384 11.347a.5.5 0 0 1-.064.704l-4 3.333a.5.5 0 0 1-.64-.768l4-3.333a.5.5 0 0 1 .704.064Z" fill="#000"/>
  <path fill-rule="evenodd" clip-rule="evenodd" d="M5.616 11.347a.5.5 0 0 1 .704-.064l4 3.333a.5.5 0 0 1-.64.768l-4-3.333a.5.5 0 0 1-.064-.704Z" fill="#000"/>
  <path fill-rule="evenodd" clip-rule="evenodd" d="M10 15a.5.5 0 0 1-.5-.5V5a.5.5 0 0 1 1 0v9.5a.5.5 0 0 1-.5.5Z" fill="#000"/>
</svg>
